resources/icons/20px/many-to-many.svg

<svg width="20" height="20" viewBox="0 0 20 20" fill="none" xmlns="http://www.w3.org/2000/svg">
<path d="M17 6C17.2652 6 17.5196 5.89464 17.7071 5.7071C17.8946 5.51957 18 5.26521 18 5C18 4.73478 17.8946 4.48043 17.7071 4.29289C17.5196 4.10535 17.2652 4 17 4C16.7348 4 16.4804 4.10535 16.2929 4.29289C16.1054 4.48043 16 4.73478 16 5C16 5.26521 16.1054 5.51957 16.2929 5.7071C16.4804 5.89464 16.7348 6 17 6ZM17 8C16.4247 8.00019 15.8614 7.83494 15.3774 7.52395C14.8934 7.21296 14.509 6.76935 14.27 6.246C14.0687 6.31266 13.863 6.40066 13.653 6.51C12.769 6.975 11.733 7.928 11.048 10C11.733 12.072 12.769 13.025 13.653 13.49C13.863 13.5993 14.0687 13.6873 14.27 13.754C14.5629 13.1118 15.0729 12.5935 15.7103 12.2902C16.3476 11.9869 17.0715 11.918 17.7546 12.0957C18.4377 12.2734 19.0363 12.6862 19.4451 13.2616C19.8538 13.837 20.0467 14.5381 19.9896 15.2417C19.9325 15.9452 19.6292 16.6061 19.133 17.108C18.6369 17.61 17.9796 17.921 17.2767 17.9863C16.5739 18.0515 15.8706 17.8669 15.2905 17.4648C14.7104 17.0627 14.2906 16.469 14.105 15.788C13.6249 15.667 13.1606 15.4897 12.722 15.26C11.739 14.742 10.774 13.896 10 12.555C9.226 13.895 8.261 14.742 7.278 15.26C6.798 15.512 6.328 15.679 5.895 15.788C5.70288 16.4881 5.26349 17.0948 4.65825 17.4957C4.05301 17.8966 3.32296 18.0645 2.60338 17.9684C1.8838 17.8722 1.22349 17.5184 0.744798 16.9726C0.266107 16.4268 0.00149676 15.726 7.90518e-07 15C-0.000496499 14.3147 0.233642 13.6499 0.663469 13.1162C1.0933 12.5824 1.6929 12.2119 2.36254 12.0663C3.03218 11.9207 3.73149 12.0087 4.34415 12.3158C4.95681 12.6228 5.44587 13.1304 5.73 13.754C5.93133 13.6873 6.137 13.5993 6.347 13.49C7.231 13.025 8.267 12.072 8.952 10C8.267 7.928 7.231 6.975 6.347 6.51C6.14909 6.40487 5.9427 6.31656 5.73 6.246C5.43706 6.88816 4.92707 7.40648 4.28973 7.70978C3.65239 8.01309 2.92851 8.08196 2.24541 7.90429C1.56231 7.72661 0.963725 7.31377 0.554938 6.73836C0.146151 6.16296 -0.0466631 5.46184 0.010407 4.75832C0.0674772 4.0548 0.370776 3.39393 0.866963 2.89194C1.36315 2.38995 2.02045 2.07898 2.72326 2.01374C3.42606 1.94849 4.12937 2.13313 4.70949 2.5352C5.28961 2.93727 5.70939 3.53101 5.895 4.212C6.328 4.322 6.799 4.48799 7.278 4.74C8.261 5.258 9.226 6.104 10 7.445C10.774 6.105 11.739 5.258 12.722 4.74C13.202 4.48799 13.672 4.321 14.105 4.212C14.2971 3.5119 14.7365 2.90518 15.3418 2.50428C15.947 2.10337 16.677 1.93545 17.3966 2.03164C18.1162 2.12782 18.7765 2.4816 19.2552 3.0274C19.7339 3.5732 19.9985 4.27402 20 5C20 5.79564 19.6839 6.55871 19.1213 7.12132C18.5587 7.68392 17.7956 8 17 8ZM4 5C4 4.73478 3.89464 4.48043 3.70711 4.29289C3.51957 4.10535 3.26522 4 3 4C2.73478 4 2.48043 4.10535 2.29289 4.29289C2.10536 4.48043 2 4.73478 2 5C2 5.26521 2.10536 5.51957 2.29289 5.7071C2.48043 5.89464 2.73478 6 3 6C3.26522 6 3.51957 5.89464 3.70711 5.7071C3.89464 5.51957 4 5.26521 4 5ZM16 15C16 15.2652 16.1054 15.5196 16.2929 15.7071C16.4804 15.8946 16.7348 16 17 16C17.2652 16 17.5196 15.8946 17.7071 15.7071C17.8946 15.5196 18 15.2652 18 15C18 14.7348 17.8946 14.4804 17.7071 14.2929C17.5196 14.1054 17.2652 14 17 14C16.7348 14 16.4804 14.1054 16.2929 14.2929C16.1054 14.4804 16 14.7348 16 15ZM3 14C2.73478 14 2.48043 14.1054 2.29289 14.2929C2.10536 14.4804 2 14.7348 2 15C2 15.2652 2.10536 15.5196 2.29289 15.7071C2.48043 15.8946 2.73478 16 3 16C3.26522 16 3.51957 15.8946 3.70711 15.7071C3.89464 15.5196 4 15.2652 4 15C4 14.7348 3.89464 14.4804 3.70711 14.2929C3.51957 14.1054 3.26522 14 3 14Z" fill="black"/>
</svg>

<svg xmlns="http://www.w3.org/2000/svg" viewBox="0 0 20 20">
  <path d="M17 6a1 1 0 1 0 0-2 1 1 0 0 0 0 2m0 2a3 3 0 0 1-2.73-1.754 4 4 0 0 0-.617.264c-.884.465-1.92 1.418-2.605 3.49.685 2.072 1.721 3.025 2.605 3.49q.315.164.617.264a3 3 0 1 1-.165 2.034 6.3 6.3 0 0 1-1.383-.528c-.983-.518-1.948-1.364-2.722-2.705-.774 1.34-1.739 2.187-2.722 2.705a6.3 6.3 0 0 1-1.383.528A3 3 0 0 1 0 15a3 3 0 0 1 5.73-1.246q.302-.1.617-.264c.884-.465 1.92-1.418 2.605-3.49-.685-2.072-1.721-3.025-2.605-3.49a4 4 0 0 0-.617-.264 3 3 0 1 1 .165-2.034c.433.11.904.276 1.383.528.983.518 1.948 1.364 2.722 2.705.774-1.34 1.739-2.187 2.722-2.705a6.3 6.3 0 0 1 1.383-.528A3 3 0 0 1 20 5a3 3 0 0 1-3 3M4 5a1 1 0 1 0-2 0 1 1 0 0 0 2 0m12 10a1 1 0 1 0 2 0 1 1 0 0 0-2 0M3 14a1 1 0 1 0 0 2 1 1 0 0 0 0-2"/>
</svg>
